dist/svg/front-office-duo-tone.svg

<svg xmlns="http://www.w3.org/2000/svg" viewBox="0 0 24 24"><path d="M11.617 3.283c-.585.069-1.098.328-1.552.781a2.7 2.7 0 0 0-.692 1.116c-.148.45-.156 1.139-.019 1.579.115.366.235.608.429.863.09.117.13.2.102.21-.113.037-.535.389-.794.661-.661.696-1.034 1.474-1.274 2.657l-.019.09-2.409.001c-1.325 0-2.48.017-2.566.037a.739.739 0 0 0-.348 1.246q.235.235.625.236h.16l-.012 1.13c-.013 1.21.014 1.513.168 1.85.108.238.431.601.658.74l.164.1.001 1.74c.001 1.143.017 1.795.046 1.899.059.213.293.441.513.5.4.108.812-.12.92-.51.026-.091.042-.787.042-1.799v-1.65h12.48v1.65c0 1.012.016 1.708.042 1.799.108.39.52.618.92.51.22-.059.454-.287.513-.5.029-.104.045-.756.046-1.899l.001-1.74.164-.1c.227-.139.55-.502.658-.74.154-.337.181-.64.168-1.85l-.012-1.13h.16q.39-.001.625-.236a.739.739 0 0 0-.348-1.246c-.086-.02-1.241-.037-2.566-.037l-2.409-.001-.019-.09c-.24-1.183-.613-1.961-1.274-2.657-.259-.272-.681-.624-.794-.661-.028-.01.012-.093.102-.21.194-.255.314-.497.429-.863.137-.44.129-1.129-.018-1.579-.424-1.293-1.642-2.06-3.011-1.897m.911 1.59c.239.117.481.359.599.599.133.27.133.787 0 1.057-.464.943-1.795.943-2.252 0a1.43 1.43 0 0 1-.074-.871c.097-.348.43-.703.785-.838.232-.088.708-.061.942.053m.238 3.981c.411.132.652.284.998.626.296.294.372.399.549.76.113.231.241.55.284.71l.078.29h-5.35l.078-.29c.043-.16.171-.479.284-.71.177-.361.253-.466.549-.76.42-.417.651-.54 1.304-.697.162-.039 1.044.012 1.226.071m6.401 3.972c.067.061.073.152.073 1.167 0 .968-.008 1.11-.066 1.174-.064.07-.339.073-7.167.073-6.551 0-7.106-.005-7.174-.066-.067-.061-.073-.152-.073-1.167 0-.968.008-1.11.066-1.174.064-.07.339-.073 7.167-.073 6.551 0 7.106.005 7.174.066" fill-rule="evenodd"/></svg>

<svg fill="none" xmlns="http://www.w3.org/2000/svg" viewBox="0 0 24 24"><path d="M11.617 3.283 C 11.032 3.352,10.519 3.611,10.065 4.064 C 9.729 4.399,9.517 4.740,9.373 5.180 C 9.225 5.630,9.217 6.319,9.354 6.759 C 9.469 7.125,9.589 7.367,9.783 7.622 C 9.873 7.739,9.913 7.822,9.885 7.832 C 9.772 7.869,9.350 8.221,9.091 8.493 C 8.430 9.189,8.057 9.967,7.817 11.150 L 7.798 11.240 5.389 11.241 C 4.064 11.241,2.909 11.258,2.823 11.278 C 2.258 11.409,2.062 12.111,2.475 12.524 C 2.631 12.681,2.840 12.759,3.100 12.760 L 3.260 12.760 3.248 13.890 C 3.235 15.100,3.262 15.403,3.416 15.740 C 3.524 15.978,3.847 16.341,4.074 16.480 L 4.238 16.580 4.239 18.320 C 4.240 19.463,4.256 20.115,4.285 20.219 C 4.344 20.432,4.578 20.660,4.798 20.719 C 5.198 20.827,5.610 20.599,5.718 20.209 C 5.744 20.118,5.760 19.422,5.760 18.410 L 5.760 16.760 12.000 16.760 L 18.240 16.760 18.240 18.410 C 18.240 19.422,18.256 20.118,18.282 20.209 C 18.390 20.599,18.802 20.827,19.202 20.719 C 19.422 20.660,19.656 20.432,19.715 20.219 C 19.744 20.115,19.760 19.463,19.761 18.320 L 19.762 16.580 19.926 16.480 C 20.153 16.341,20.476 15.978,20.584 15.740 C 20.738 15.403,20.765 15.100,20.752 13.890 L 20.740 12.760 20.900 12.760 C 21.160 12.759,21.369 12.681,21.525 12.524 C 21.938 12.111,21.742 11.409,21.177 11.278 C 21.091 11.258,19.936 11.241,18.611 11.241 L 16.202 11.240 16.183 11.150 C 15.943 9.967,15.570 9.189,14.909 8.493 C 14.650 8.221,14.228 7.869,14.115 7.832 C 14.087 7.822,14.127 7.739,14.217 7.622 C 14.411 7.367,14.531 7.125,14.646 6.759 C 14.783 6.319,14.775 5.630,14.628 5.180 C 14.204 3.887,12.986 3.120,11.617 3.283 M12.528 4.873 C 12.767 4.990,13.009 5.232,13.127 5.472 C 13.260 5.742,13.260 6.259,13.127 6.529 C 12.663 7.472,11.332 7.472,10.875 6.529 C 10.764 6.300,10.730 5.909,10.801 5.658 C 10.898 5.310,11.231 4.955,11.586 4.820 C 11.818 4.732,12.294 4.759,12.528 4.873 M12.766 8.854 C 13.177 8.986,13.418 9.138,13.764 9.480 C 14.060 9.774,14.136 9.879,14.313 10.240 C 14.426 10.471,14.554 10.790,14.597 10.950 L 14.675 11.240 12.000 11.240 L 9.325 11.240 9.403 10.950 C 9.446 10.790,9.574 10.471,9.687 10.240 C 9.864 9.879,9.940 9.774,10.236 9.480 C 10.656 9.063,10.887 8.940,11.540 8.783 C 11.702 8.744,12.584 8.795,12.766 8.854 M19.167 12.826 C 19.234 12.887,19.240 12.978,19.240 13.993 C 19.240 14.961,19.232 15.103,19.174 15.167 C 19.110 15.237,18.835 15.240,12.007 15.240 C 5.456 15.240,4.901 15.235,4.833 15.174 C 4.766 15.113,4.760 15.022,4.760 14.007 C 4.760 13.039,4.768 12.897,4.826 12.833 C 4.890 12.763,5.165 12.760,11.993 12.760 C 18.544 12.760,19.099 12.765,19.167 12.826 " stroke="none" fill-rule="evenodd" fill="currentColor"/></svg>
